X:1
T:8 Lieder and Romances, Op.14
T:Trennung
T:5. Trennung
T:Johannes Brahms
T:Volkslied
T:8 Lieder and Romances, Op.14
T:Creative Commons copyright waiver (CC0 1.0 Universal) 
T:Creative Commons copyright waiver (CC0 1.0 Universal) 
T:Creative Commons copyright waiver (CC0 1.0 Universal) 
C:Johannes Brahms
Z:Volkslied
Z:Creative Commons copyright waiver (CC0 1.0 Universal)
Z:
%%score ( 1 2 ) { 3 | ( 4 5 6 ) }
L:1/8
Q:1/4=165
M:6/8
K:F
V:1 treble nm="Singstimme\nVoice"
V:2 treble 
V:3 treble nm="Pianoforte"
V:4 bass 
V:5 bass 
V:6 bass 
V:1
"^Sehr schnell" z2 z z2!f! c |: f2 c f2 c | B d f c2 c | c2 c c c e | c2 c z2 c | _e2 e d d d | %6
w: 1. Wach|auf, wach auf, du|jun- ger Ge- sell, du|hast so lang * ge-|schla- fen, da|draus- sen sin- gen die|
w: |2. auf, wach auf, mit|hel- * ler Stimm hub|an der Wäch- ter zu|ru- fen, wo|zwei Herz- lie- ben bei-|
w: |3. Kna- be- war ver-|schla- * fen gar, er|schlief so lang, * so|süs- se, die|Jung- frau a- * ber|
 c2 c B2 c | A!<(! A c f f!<)! g | c3 f2 z | z6 |1,2 z2 z z2"_" c :|3 z2 z z2!mf! c || %12
w: Vö- gel hell, der|Fuhr- * mann lärmt auf der|Stras- sen!||2. Wach|4. Das|
w: sam- men sind, da|müs- sen sie sein * gar|klu- ge.||3.  Der||
w: wei- se war, weckt|ihn * durch ih- * re|Küs- se!||||
 f2 e (fc) c | f2 e f2 c | c2 c (cB) B | B2 A z2 A | d2 d c2 c | B2 B A2 A | ^F2 A d2 =e | %19
w: Schei- den, Schei- * den|tu- et not, wie|Tod ist es * so|har- te, der|scheid't auch man- ches|Münd- lein rot und|man- che Buh- len|
w: |||||||
w: |||||||
 A3 d2 z | z6 | z2 z z2!f! c | f2 c f2 c | (Bd) f c2 c | c2 c c2 e | c2 c z2 c | _e2 e d2 d | %27
w: zar- te.||5. Der|Kna- be auf sein|Röss- * lein sprang und|trab- te schnell von|dan- nen, die|Jung- frau sah ihm|
w: ||||||||
w: ||||||||
 c2 c B2 c |!<(! A2 c f2!<)! g | c3 f2 z | z6 |[Q:3/8=80] z6 | !fermata!z6 |] %33
w: lan- ge nach, gross|Leid tat sie um-|fan- gen!||||
w: ||||||
w: ||||||
V:2
 x6 |: x6 | (Bd) x4 | x3 c2 x | x6 | x3 d2 x | x6 | A2 x f2 g | x6 | x6 |1,2 x6 :|3 x6 || x6 | x6 | %14
 x6 | x6 | x6 | x6 | x6 | x6 | x6 | x6 | x6 | x6 | x6 | x6 | x6 | x6 | x6 | x6 | x6 | x6 | x6 |] %33
V:3
 z/!mp!!<(! F,/z/[F,A,]/z/[A,C]/ z/!<)!!mf! [CF]/z/[FA]/z/[Ac]/ |: %1
 z/ [Bdf]/z/[Bdf]/z/[Ac]/ z/ [Bdf]/z/[Bdf]/z/[Ac]/ | %2
 z/ [Bdf]/z/[Bdf]/z/[Ac]/ z/ [Ac]/z/[Gc]/z/[Ec]/ | %3
 z/ [FAc]/z/[FAc]/z/[EGc]/ z/ [FAc]/z/[FAc]/z/[EGc]/ | %4
 z/ [FAc]/z/[FAc]/z/[EGc]/ z/ [Ac]/z/[Gc]/z/[Fc]/ | %5
 z/ [_EG_e]/z/[EGe]/z/[EGe]/ z/ [FAd]/z/[FAd]/z/[EGd]/ | %6
 z/ [_EGc]/z/[EGc]/z/[DFc]/ z/ [DFB]/z/[DFB]/z/[C=Ec]/ | %7
 z/!<(! [CFA]/z/[CFA]/z/[CGc]/ z/ [FAf]/z/[FAf]/z/!<)![GBdg]/ | %8
 z/ [GBc]/z/[FAc]/z/[EGc]/ z/ [FAc]/z/[A,F]/z/[FAc]/ | %9
 z/ [GBc]/z/[FAc]/z/[EGc]/ z/ [FAc]/z/[A,F]/z/[FAc]/ |1,2 %10
 z/ [GBc]/z/[EGc]/z/[GBc]/ z/ [Ge]/z/[GB]/z/[Ac]/ :|3 %11
 z/ [GBc]/z/[FAc]/z/[EGc]/ z/ [DF]/z/[CE]/z/[B,D]/ || %12
 z/ [A,C]/z/[CF]/z/[B,E]/ z/ [CF]/z/[A,C]/z/[G,C]/ | %13
 z/ [A,C]/z/[CF]/z/[B,E]/ z/ [CF]/z/[FA]/z/[Gc]/ | %14
 z/ [Ac]/z/[_Ac]/z/[Gc]/ z/ [_Gc]/z/[FB]/z/[=EB]/ | %15
 z/ [_EB]/z/[EB]/z/[EA]/ z/ [EB]/z/[EB]/z/[EA]/ | %16
 z/ [FAd]/z/[FAd]/z/[_EGd]/ z/ [EGc]/z/[EGc]/z/[DFc]/ | %17
 z/ [DAB]/z/[DGB]/z/[DFB]/ z/!p!!>(! [DEA]/z/[=B,EA]/z/!>)![^CEA]/ | %18
 z/ [D^F]/z/[DF]/z/!<(![^CEA]/ z/ [FAd]/z/[FAd]/z/!<)![G=Be]/ | %19
 z/!>(! [EGA]/z/[D^FA]/z/[^CEA]/ z/!>)! [DFA]/z/[^F,D]/z/[DFA]/ | %20
 z/ [EGA]/z/[D=FA]/z/[^CEA]/ z/ [DFA]/z/[F,D]/z/[DA]/ | %21
 z/!<(! [E_B]/z/[EG]/z/[EB]/ z/ [Ge]/z/[GB]/!<)!!f!z/[Ac]/ | %22
 z/ [Bdf]/z/[Bdf]/z/[Ac]/ z/ [Bdf]/z/[Bdf]/z/[Ac]/ | %23
 z/ [Bdf]/z/[Bdf]/z/[Ac]/ z/ [Ac]/z/[Gc]/z/[Ec]/ | %24
 z/ [FAc]/z/[FAc]/z/[EGc]/ z/ [FAc]/z/[FAc]/z/[EGc]/ | %25
 z/ [FAc]/z/[FAc]/z/[EGc]/ z/ [Ac]/z/[Gc]/z/[Fc]/ | %26
 z/ [_EG_e]/z/[EGe]/z/[FAe]/ z/ [FAd]/z/[FAd]/z/[EGd]/ | %27
 z/ [_EGc]/z/[EGc]/z/[DFc]/ z/ [DFB]/z/[DFB]/z/[C=Ec]/ | %28
 z/ [CFA]/z/[CFA]/z/[CGc]/ z/ [FAf]/z/[FAf]/z/[GBdg]/ | %29
 z/ [GBc]/z/[FAc]/z/[EGc]/ z/ [FAc]/z/[A,F]/z/[FAc]/ | %30
 z/ [GBc]/z/[FAc]/z/[EGc]/ z/ [FAc]/z/[A,F]/z/[A,C]/ | %31
[K:bass] z/ [G,B,C]/z/[F,A,C]/z/[E,G,C]/ z/ [G,B,C]/z/[F,A,C]/z/[E,G,C]/ | %32
 z/ (.[G,B,C]/x/x/z/.[F,A,C]/) z/ [F,A,C]/- !fermata![F,A,C]2 |] %33
V:4
"^poco " x3 x2 (F |: B,2) (F B,2) (F | B,2) (F C)CC | CCC CCC | CCC CCC | CCC B,B,B, | %6
 A,A,A, G,G,G, | F,F,E, D,D,B,, | C,C,C, C,C,C, | C,C,C, F,F,F, |1,2 CCC CC F :|3 CCC CCC, || %12
!p! (F,,A,G, A,F,E, | F,A,G, A,CE) | (FFE _ED_D) | (CF,C, CF,C,) | (B,,B,_E, A,,A,D,) | %17
 (G,,G,G,, A,,A,A,,) | (D,,D,A,, D,,D,G,,) | (A,,A,A,, A,A,,A,) |!p! (A,,A,A,,) (D,D,,D,) | %21
 (=C,CC, CC,) (F | B,2) (F B,2) (F | B,2) (F C)CC | CCC- CCC | CCC CCC | CCC B,B,B, | %27
 A,A,A, G,G,G, |!<(! F,F,E, D,D,B,,!<)! | C,C,C, C,C,C, |"^dim." C,C,C, C,C,C, | %31
"^rit." C,C,C, C,C,C, | C,C,C,!p! !fermata!C,3 |] %33
V:5
 .F,,.F,,.F,, F,F,F, |: F,F,F, F,F,F, | F,F,F, (F,E,C,) | F,2 (C, F,2) (C, | F,2) C, (F,E,D,) | %5
 C,2 F, B,,2 _E, | A,,2 D, G,,2 C, | F,,2 E,, D,,2 B,,, | C,,3 C,,3 | C,,3 F,,3 |1,2 C,3 C,2 F, :|3 %11
 C,3- C,2 C, || x6 | x6 | x6 | x6 | x6 | x6 | x6 | x6 | x6 | x5 F, | F,F,F, F,F,F, | %23
 F,F,F, (F,E,C,) | F,2 (C, F,2) (C, | F,2) C, (F,E,D,) | C,2 F, B,,2 _E, | A,,2 D, G,,2 C, | %28
 F,,2 E,, D,,2 B,,, | C,,3 C,,3 | C,,3 C,,3 | C,,3 C,,3 | F,,3 !fermata!F,,3 |] %33
V:6
 x6 |: x6 | x6 | x6 | x6 | x6 | x6 | x6 | x6 | x6 |1,2 x5 x7/8- x/8 :|3 x6 || x6 | x6 | x6 | x6 | %16
 x6 | x6 | x6 | x6 | x6 | x6 | x6 | x6 | x6 | x6 | x6 | x6 | x6 | x6 | x6 | x6 | x6 |] %33

